Adwaita++/apps/symbolic/slack-symbolic.svg

<svg height="16" width="16" xmlns="http://www.w3.org/2000/svg">
  <path d="m9.4685803.50879071c-.127491-.017596-.261213-.00882-.393737.026696-.530094.1420325-.84154.68253689-.699507 1.21261099l.513134 1.9138096-3.8283992 1.0253012-.5127382-1.9139087c-.141954-.5300345-.682033-.8433402-1.2121069-.7012977-.530173.1420425-.8421152.6843595-.7000621 1.2144931l.513184 1.9120267-1.9140511.5126408c-.53009373.142033-.84204583.684409-.70000273 1.214493.1420432.530054.68258783.841478 1.21270133.699455l1.9140512-.51264 1.0253774 3.8278173-1.9140511.512641c-.5300937.142032-.8434129.682042-.7013697 1.212116.1420432.530054.68446.841983 1.2145834.69995l1.912169-.513146.5126789 1.913909c.1420431.530054.68446.841983 1.2145838.699951.530093-.142023.84154-.682537.699507-1.212611l-.512679-1.913909 3.8281017-1.025301.512679 1.913908c.142043.530055.682093.843351 1.212206.701318.530094-.142033.842046-.684409.700003-1.214493l-.513184-1.912027 1.914051-.512641c.530094-.142032.842046-.6844093.700003-1.2144933-.142034-.530054-.682588-.841478-1.212702-.699455l-1.912862.514087-1.025278-3.8283129 1.913853-.5126011c.529974-.1420425.843997-.6820813.701349-1.2121158-.141656-.5300345-.684509-.8419535-1.214484-.70001l-1.911872.5131954-.513134-1.9139088c-.105995-.39760009-.4378487-.67385989-.8202227-.72665529zm-.06738 5.06529099 1.0253767 3.827818-3.8281017 1.0253013-1.0253776-3.8278183z" fill="#474747"/>
</svg>

<svg xmlns="http://www.w3.org/2000/svg" width="16" height="16" version="1.1">
 <defs>
  <style id="current-color-scheme" type="text/css">
   .ColorScheme-Text { color:#5c616c; } .ColorScheme-Highlight { color:#5294e2; } .ColorScheme-ButtonBackground { color:#444; }
  </style>
 </defs>
 <path style="fill:currentColor" class="ColorScheme-ButtonBackground" d="m 9.4685803,0.50879071 c -0.127491,-0.017596 -0.261213,-0.00882 -0.393737,0.026696 -0.530094,0.1420325 -0.84154,0.68253689 -0.699507,1.21261099 L 8.8884703,3.6619073 5.0600711,4.6872085 4.5473329,2.7732998 C 4.4053789,2.2432653 3.8652999,1.9299596 3.335226,2.0720021 2.805053,2.2140446 2.4931108,2.7563616 2.6351639,3.2864952 l 0.513184,1.9120267 -1.9140511,0.5126408 c -0.53009373,0.142033 -0.84204583,0.684409 -0.70000273,1.214493 0.1420432,0.530054 0.68258783,0.841478 1.21270133,0.699455 l 1.9140512,-0.51264 1.0253774,3.8278173 -1.9140511,0.512641 c -0.5300937,0.142032 -0.8434129,0.682042 -0.7013697,1.212116 0.1420432,0.530054 0.68446,0.841983 1.2145834,0.69995 l 1.912169,-0.513146 0.5126789,1.913909 c 0.1420431,0.530054 0.68446,0.841983 1.2145838,0.699951 0.530093,-0.142023 0.84154,-0.682537 0.699507,-1.212611 l -0.512679,-1.913909 3.8281017,-1.025301 0.512679,1.913908 c 0.142043,0.530055 0.682093,0.843351 1.212206,0.701318 0.530094,-0.142033 0.842046,-0.684409 0.700003,-1.214493 l -0.513184,-1.912027 1.914051,-0.512641 c 0.530094,-0.142032 0.842046,-0.6844093 0.700003,-1.2144933 -0.142034,-0.530054 -0.682588,-0.841478 -1.212702,-0.699455 L 12.340142,8.8900917 11.314864,5.0617788 13.228717,4.5491777 C 13.758691,4.4071352 14.072714,3.8670964 13.930066,3.3370619 13.78841,2.8070274 13.245557,2.4951084 12.715582,2.6370519 L 10.80371,3.1502473 10.290576,1.2363385 C 10.184581,0.83873841 9.8527273,0.56247861 9.4703533,0.50968321 Z M 9.4012003,5.5740817 10.426577,9.4018997 6.5984753,10.427201 5.5730977,6.5993827 Z"/>
</svg>
